X: 176
T: Ba cong
%%abc-version 2.0
%%abcx-abcm2ps-target-version 5.9.1 (29 Sep 2008)
%%abc-creator hum2abc beta
%%abcx-conversion-date 2013/10/02 07:52:29
%%abc-edited-by Helmut Schaffrath
%%humdrum-veritas 1321172495
%%humdrum-veritas-data 478417447
%%continueall 1
%%barnumbers 0
L: 1/8
M: 2/4
K: D
e> f e d [I:setbarnb 1]| 
eB2A | 
B> c B E | 
e> f e d | 
eB2A | 
B> c B E | 
A2B2 | 
AE2d | 
B2d2 | 
e c B A | 
BG2A | 
B d A F | 
AE2D | 
E4 |]  



